themes/2023/icons/yarn-lock.svg

<svg width="16" height="16" fill="none" xmlns="http://www.w3.org/2000/svg"><g fill-rule="evenodd" clip-rule="evenodd"><path d="M8.962 13.901V10.92c0-.488.393-.887.873-.887h.786v-.314c0-.302.06-.589.166-.85a3.351 3.351 0 0 0-.592-.687c-.092-.084-.143-.131-.126-.16.051-.086.118-.183.194-.293.293-.424.722-1.045.917-2.026.147-.75.108-1.982-.223-2.628-.062-.12-.61.201-.61.201S9.834 2.131 9.69 2.04c-.463-.298-.957 1.22-.957 1.22s-1.057-.17-1.887.727c-.166.182-.39.279-.621.368a.489.489 0 0 1-.012.004c-.064.02-.147.047-.336.556-.308.83.521 1.747.521 1.747s-.987.7-1.354 1.569c-.405.954-.282 1.886-.282 1.886s-.702.61-.756 1.248c-.042.553.116 1.001.286 1.264.189.286.424.147.424.147s-.467.545-.03.777c.397.208 1.068.328 1.423-.031.178-.179.257-.508.321-.773.029-.119.054-.225.084-.298.015-.035.054.015.099.075.024.032.05.066.075.091.08.078.22.163.22.163s-.63.27-.37.889c.084.204.389.336.887.332.107-.002.837-.041 1.536-.099Z" fill="#89DDFF"/><path d="M15.25 10.667h-.375v-.762C14.875 8.853 14.035 8 13 8c-1.035 0-1.875.853-1.875 1.905v.762h-.375a.758.758 0 0 0-.75.762v3.81c0 .418.338.761.75.761h4.5c.412 0 .75-.343.75-.762v-3.81a.758.758 0 0 0-.75-.761ZM13 14.095a.758.758 0 0 1-.75-.762c0-.419.338-.762.75-.762s.75.343.75.762c0 .42-.338.762-.75.762Zm-1.162-4.19v.762h2.325v-.762c0-.652-.522-1.181-1.163-1.181s-1.162.53-1.162 1.18Z" fill="#FFCB6B"/></g></svg>

<?xml version="1.0" encoding="UTF-8" standalone="no"?>
<svg
   width="16"
   height="16"
   fill="none"
   version="1.1"
   id="svg2"
   sodipodi:docname="yarn-lock.svg"
   inkscape:version="1.3.2 (091e20e, 2023-11-25, custom)"
   xmlns:inkscape="http://www.inkscape.org/namespaces/inkscape"
   xmlns:sodipodi="http://sodipodi.sourceforge.net/DTD/sodipodi-0.dtd"
   xmlns="http://www.w3.org/2000/svg"
   xmlns:svg="http://www.w3.org/2000/svg">
  <defs
     id="defs2" />
  <sodipodi:namedview
     id="namedview2"
     pagecolor="#ffffff"
     bordercolor="#000000"
     borderopacity="0.25"
     inkscape:showpageshadow="2"
     inkscape:pageopacity="0.0"
     inkscape:pagecheckerboard="0"
     inkscape:deskcolor="#d1d1d1"
     inkscape:zoom="38.051184"
     inkscape:cx="3.7712362"
     inkscape:cy="7.0300047"
     inkscape:window-width="1920"
     inkscape:window-height="1057"
     inkscape:window-x="1912"
     inkscape:window-y="-8"
     inkscape:window-maximized="1"
     inkscape:current-layer="svg2" />
  <g
     fill-rule="evenodd"
     clip-rule="evenodd"
     id="g2"
     transform="matrix(1.0713388,0,0,1.0713388,-2.8740468,-1.6288622)">
    <path
       d="M 8.962,13.901 V 10.92 c 0,-0.488 0.393,-0.887 0.873,-0.887 h 0.786 V 9.719 c 0,-0.302 0.06,-0.589 0.166,-0.85 A 3.351,3.351 0 0 0 10.195,8.182 C 10.103,8.098 10.052,8.051 10.069,8.022 10.12,7.936 10.187,7.839 10.263,7.729 10.556,7.305 10.985,6.684 11.18,5.703 c 0.147,-0.75 0.108,-1.982 -0.223,-2.628 -0.062,-0.12 -0.61,0.201 -0.61,0.201 0,0 -0.513,-1.145 -0.657,-1.236 C 9.227,1.742 8.733,3.26 8.733,3.26 8.733,3.26 7.676,3.09 6.846,3.987 6.68,4.169 6.456,4.266 6.225,4.355 A 0.489,0.489 0 0 1 6.213,4.359 c -0.064,0.02 -0.147,0.047 -0.336,0.556 -0.308,0.83 0.521,1.747 0.521,1.747 0,0 -0.987,0.7 -1.354,1.569 -0.405,0.954 -0.282,1.886 -0.282,1.886 0,0 -0.702,0.61 -0.756,1.248 -0.042,0.553 0.116,1.001 0.286,1.264 0.189,0.286 0.424,0.147 0.424,0.147 0,0 -0.467,0.545 -0.03,0.777 0.397,0.208 1.068,0.328 1.423,-0.031 0.178,-0.179 0.257,-0.508 0.321,-0.773 0.029,-0.119 0.054,-0.225 0.084,-0.298 0.015,-0.035 0.054,0.015 0.099,0.075 0.024,0.032 0.05,0.066 0.075,0.091 0.08,0.078 0.22,0.163 0.22,0.163 0,0 -0.63,0.27 -0.37,0.889 0.084,0.204 0.389,0.336 0.887,0.332 0.107,-0.002 0.837,-0.041 1.536,-0.099 z"
       fill="#89ddff"
       id="path1" />
    <path
       d="M 15.25,10.667 H 14.875 V 9.905 C 14.875,8.853 14.035,8 13,8 11.965,8 11.125,8.853 11.125,9.905 v 0.762 H 10.75 A 0.758,0.758 0 0 0 10,11.429 v 3.81 C 10,15.657 10.338,16 10.75,16 h 4.5 C 15.662,16 16,15.657 16,15.238 v -3.81 A 0.758,0.758 0 0 0 15.25,10.667 Z M 13,14.095 a 0.758,0.758 0 0 1 -0.75,-0.762 c 0,-0.419 0.338,-0.762 0.75,-0.762 0.412,0 0.75,0.343 0.75,0.762 0,0.42 -0.338,0.762 -0.75,0.762 z m -1.162,-4.19 v 0.762 h 2.325 V 9.905 c 0,-0.652 -0.522,-1.181 -1.163,-1.181 -0.641,0 -1.162,0.53 -1.162,1.18 z"
       fill="#ffcb6b"
       id="path2" />
  </g>
</svg>
